svg/u1f37a.svg

<svg viewBox="0 0 128 128" xmlns="http://www.w3.org/2000/svg">
  <path d="M108.69,45.31c-5.59-3.45-12.96-2.82-16.36-2.24v-3.96c0,0,2.36-0.87,2.11-3.72 c-0.25-2.85-6.82-3.1-6.82-3.1l-59.75-0.12c0,0-3.1,0.5-3.1,3.35S27,38.86,27,38.86s-0.74,58.51-0.99,60.12 c-0.25,1.61-1.98,8.06-2.48,10.16c-0.5,2.11,0,3.47,1.61,4.83c1.61,1.36,11.78,9.67,33.72,10.29c21.44,0.61,31.36-7.56,33.34-9.3 c1.22-1.06,1.98-3.1,1.61-4.59s-1.36-9.05-1.36-9.05l-0.1-4.32c1.64-0.13,3.69-0.41,5.55-1.01c6.2-1.98,13.55-7.5,15.99-14.01 C117.25,73.08,119.61,52.06,108.69,45.31z M101.13,81.63c-3,3.06-6.59,3.6-8.8,3.7V54.54c2.26-0.43,6.58-1.02,9.17,0.07 c2.36,0.99,3.72,2.6,4.46,6.2C106.4,62.88,107.21,75.43,101.13,81.63z" opacity="0.5" fill="#FFFFFF"/>
  <path d="M108.69,45.31c-5.59-3.45-12.96-2.82-16.36-2.24v-3.96c0,0,2.36-0.87,2.11-3.72 c-0.25-2.85-6.82-3.1-6.82-3.1l-59.75-0.12c0,0-3.1,0.5-3.1,3.35S27,38.86,27,38.86s-0.74,58.51-0.99,60.12 c-0.25,1.61-1.98,8.06-2.48,10.16c-0.5,2.11,0,3.47,1.61,4.83c1.61,1.36,11.78,9.67,33.72,10.29c21.44,0.61,31.36-7.56,33.34-9.3 c1.22-1.06,1.98-3.1,1.61-4.59s-1.36-9.05-1.36-9.05l-0.1-4.32c1.64-0.13,3.69-0.41,5.55-1.01c6.2-1.98,13.55-7.5,15.99-14.01 C117.25,73.08,119.61,52.06,108.69,45.31z M101.13,81.63c-3,3.06-6.59,3.6-8.8,3.7V54.54c2.26-0.43,6.58-1.02,9.17,0.07 c2.36,0.99,3.72,2.6,4.46,6.2C106.4,62.88,107.21,75.43,101.13,81.63z" opacity="0.7" fill="#E0E0E0"/>
  <polygon points="28.84,94.82 28.38,107.77 34.74,114.13 36.79,115.49 36.87,103.98 32.62,100.35 " fill="#FFFFFF"/>
  <path d="M26.49,109.36c0.08,0.53,5.15,5.91,15.15,9.24s22.27,3.48,33.7,0.83s15.75-9.47,15.75-9.47 s0.23-1.44-1.06-2.04s-4.39-0.68-6.44,1.44c-2.01,2.08-2.2,5.38-2.2,5.38s-2.2-4.24-7.5-3.18c-5.51,1.1-7.27,6.67-7.27,6.67 s-2.27-4.77-7.73-4.85c-5.45-0.08-8.48,5.6-8.48,5.6s0.91-6.51-5.83-8.33c-6.38-1.72-8.94,3.56-8.94,3.56s-0.27-5.2-3.26-6.97 C28.31,104.81,26.49,109.36,26.49,109.36z" fill="#D5D5D5"/>
  <polygon points="29.63,34.02 29.53,43.88 29.5,47.65 66.27,69.9 88.88,45.04 88.9,34.43 " fill="#EBC990"/>
  <path d="M29.95,92.34c0,0-1.93,0.11-1.48,2.63c0.27,1.46,5.84,16.94,31.02,16.71 c24.26-0.22,29.69-15.34,29.87-16.71c0.34-2.63-2.98-1.72-2.98-1.72L29.95,92.34z" fill="#9D9D9C"/>
  <radialGradient id="SVGID_1_" cx="60.3293" cy="13.4613" gradientTransform="matrix(-0.0172 0.9999 -0.7492 -0.0129 71.452 -46.6856)" gradientUnits="userSpaceOnUse" r="96.2252">
    <stop offset="0.5939" stop-color="#DB8116"/>
    <stop offset="0.8962" stop-color="#FDB408"/>
  </radialGradient>
  <path d="M58.92,50.57c-18.2,0.57-29.41-6.18-29.41-6.18s-0.31,43.57-0.23,46.24 c0.11,3.89,4.92,19.46,29.76,19.23c24.84-0.23,29.99-15.68,29.99-19.69c0-2.18-0.11-45.78-0.11-45.78S81,49.87,58.92,50.57z" fill="url(#SVGID_1_)"/>
  <path d="M91.73,47.06c0.24,2.87,4.54,0.98,8.79,1.07c4.65,0.1,7.45,2.04,7.69-0.64 c0.24-2.72-4.55-3.41-8.39-3.61C97.18,43.74,91.5,44.29,91.73,47.06z" fill="#FFFFFF"/>
  <path d="M92.1,52.42c-0.62,0.67-0.11,4.21,0.21,4.45c0.59,0.46,4.22-1.69,8.04-0.42 c6.22,2.06,5.46,6.18,5.83,6.1c0.39-0.08,1.37-6.94-3.85-9.77C98.4,50.66,92.72,51.75,92.1,52.42z" fill="#9E9E9E"/>
  <path d="M92.66,87.07c-0.73,0.64-0.41,2.99,2,2.95c2.72-0.05,6.53-0.91,9.66-4.62 c2.23-2.64,2.72-7.44,1.86-7.44s-2.45,4.9-6.85,7.21C95.29,87.29,93.43,86.39,92.66,87.07z" fill="#FFFFFF"/>
  <path d="M92.17,93.56l0.2,4.66c0,0,7.47,0.42,14.98-5.62c9.2-7.39,9.07-21.6,9.03-21.62 c-0.1-0.05-2.95,12.44-10.98,18.22C98.92,93.87,92.17,93.56,92.17,93.56z" fill="#9E9E9E"/>
  <path d="M62.69,61.89c-1.03,1.64-0.59,3.25,0.23,3.72c1.01,0.58,2.55-0.09,3.29-1.62 c0.65-1.34,0.65-2.81-0.57-3.38C64.68,60.16,63.59,60.45,62.69,61.89z" fill="#FFE265"/>
  <path d="M54.35,71.93c-1.07,0.85-0.65,2.16,0.06,3.09c0.76,1,2.21,1.42,3.01,0.71 c0.77-0.69,0.71-2.13-0.11-3.18C56.62,71.68,55.32,71.16,54.35,71.93z" fill="#FFE265"/>
  <path d="M53.11,81.31c-1.99,0.06-2.21,2.01-2.07,2.84c0.1,0.57,0.62,1.81,2.5,1.76s2.1-2.04,1.99-2.75 C55.4,82.45,54.87,81.26,53.11,81.31z" fill="#FFE265"/>
  <path d="M59.4,82.79c-0.97,0.03-1.88,0.92-1.62,2.35c0.26,1.39,1.19,1.73,1.99,1.62 c0.76-0.11,1.56-0.85,1.45-2.13C61.1,83.36,60.25,82.76,59.4,82.79z" fill="#FFE265"/>
  <path d="M63.5,89.76c-1.18,0-1.95,1.26-1.91,2.68c0.04,1.42,0.92,3.16,2.64,2.96 c1.22-0.14,1.87-2.15,1.58-3.33C65.53,90.89,64.72,89.76,63.5,89.76z" fill="#FFE265"/>
  <path d="M56.59,96.33c-1.34,0.4-0.91,2.7-0.73,3.25c0.24,0.73,0.89,2.11,2.36,1.79s1.18-2.27,0.65-3.49 C58.45,96.91,57.81,95.97,56.59,96.33z" fill="#FFE265"/>
  <path d="M29.79,22.76c-0.32,0.32-6.26,1.11-6.1,6.5c0.16,5.39,5.95,7.21,8.24,8.01 c2.3,0.79,7.37,1.66,8.88,6.66c1.51,4.99,1.75,7.35,4.12,8.01c2.85,0.79,4.77-3.32,6.18-5.63c1.51-2.46,2.93-4.6,5.31-4.91 s16.09,0,24.02-1.98c7.93-1.98,14.37-6.49,14.03-13.08C94,17.21,81.4,18.16,81.4,18.16S76.44,5.73,63.16,4.13 c-16.41-1.98-20.13,8.32-20.13,8.32s-6.06-1.62-10.54,2.46C28.82,18.25,29.79,22.76,29.79,22.76z" fill="#FADFB1"/>
  <path d="M44.69,17.13c-0.77,0.5-5.49-2.81-9.08,0.92c-3.03,3.16-0.75,6.13-1.7,7.32 c-1.3,1.62-5.93,0.99-5.61,4.39c0.32,3.41,4.97,3.76,7.38,4.47c2.27,0.66,4.55,1.65,6.73,3.56c2.27,1.99,1.49,7.16,3.82,7.64 c2.3,0.48,2.76-4.64,5.7-6.86c2.93-2.22,4.98-2.01,12.43-2.42c7.44-0.41,25.98-0.8,25.29-9.2c-0.55-6.74-8.48-4.2-10.86-5.39 c-2.38-1.19-5.2-11.64-16.73-13.24C50.08,6.67,45.97,16.31,44.69,17.13z" fill="#FFFFFF"/>
  <path d="M32.5,42.64c-0.34,1.91-0.54,46.26-0.54,46.26s-0.2,3.46,2.79,3.87c2.79,0.39,3.8-2.25,3.87-4.03 c0.08-1.78,0.46-41.53,0.39-43.31s-1.78-3.8-3.49-4.34S32.73,41.33,32.5,42.64z" fill="#FFFFFF"/>
</svg>

<svg viewBox="0 0 128 128" xmlns="http://www.w3.org/2000/svg">
  <defs>
    <radialGradient id="SVGID_1_" cx="12.42281" cy="-80.809934" gradientTransform="matrix(-0.0172 0.9999 -0.7492 -0.0129 0 0)" gradientUnits="userSpaceOnUse" r="96.2252">
      <stop offset="0.5939" stop-color="#DB8116"/>
      <stop offset="0.8962" stop-color="#FDB408"/>
    </radialGradient>
  </defs>
  <path d="M108.69,45.31 C103.1,41.86 95.73,42.49 92.33,43.07 L92.33,39.11 C92.33,39.11 94.69,38.24 94.44,35.39 C94.19,32.54 87.62,32.29 87.62,32.29 L27.87,32.17 C27.87,32.17 24.77,32.67 24.77,35.52 C24.77,38.37 27,38.86 27,38.86 C27,38.86 26.26,97.37 26.01,98.98 C25.76,100.59 24.03,107.04 23.53,109.14 C23.03,111.25 23.53,112.61 25.14,113.97 C26.75,115.33 36.92,123.64 58.86,124.26 C80.3,124.87 90.22,116.7 92.2,114.96 C93.42,113.9 94.18,111.86 93.81,110.37 C93.44,108.88 92.45,101.32 92.45,101.32 L92.35,97 C93.99,96.87 96.04,96.59 97.9,95.99 C104.1,94.01 111.45,88.49 113.89,81.98 C117.25,73.08 119.61,52.06 108.69,45.31 Z M101.13,81.63 C98.13,84.69 94.54,85.23 92.33,85.33 L92.33,54.54 C94.59,54.11 98.91,53.52 101.5,54.61 C103.86,55.6 105.22,57.21 105.96,60.81 C106.4,62.88 107.21,75.43 101.13,81.63 Z" fill="#FFFFFF" opacity="0.5"/>
  <path d="M108.69,45.31 C103.1,41.86 95.73,42.49 92.33,43.07 L92.33,39.11 C92.33,39.11 94.69,38.24 94.44,35.39 C94.19,32.54 87.62,32.29 87.62,32.29 L27.87,32.17 C27.87,32.17 24.77,32.67 24.77,35.52 C24.77,38.37 27,38.86 27,38.86 C27,38.86 26.26,97.37 26.01,98.98 C25.76,100.59 24.03,107.04 23.53,109.14 C23.03,111.25 23.53,112.61 25.14,113.97 C26.75,115.33 36.92,123.64 58.86,124.26 C80.3,124.87 90.22,116.7 92.2,114.96 C93.42,113.9 94.18,111.86 93.81,110.37 C93.44,108.88 92.45,101.32 92.45,101.32 L92.35,97 C93.99,96.87 96.04,96.59 97.9,95.99 C104.1,94.01 111.45,88.49 113.89,81.98 C117.25,73.08 119.61,52.06 108.69,45.31 Z M101.13,81.63 C98.13,84.69 94.54,85.23 92.33,85.33 L92.33,54.54 C94.59,54.11 98.91,53.52 101.5,54.61 C103.86,55.6 105.22,57.21 105.96,60.81 C106.4,62.88 107.21,75.43 101.13,81.63 Z" fill="#E0E0E0" opacity="0.7"/>
  <path d="M28.84,94.82 L28.38,107.77 L34.74,114.13 L36.79,115.49 L36.87,103.98 L32.62,100.35 Z" fill="#FFFFFF"/>
  <path d="M26.49,109.36 C26.57,109.89 31.64,115.27 41.64,118.6 C51.64,121.93 63.91,122.08 75.34,119.43 C86.77,116.78 91.09,109.96 91.09,109.96 C91.09,109.96 91.32,108.52 90.03,107.92 C88.74,107.32 85.64,107.24 83.59,109.36 C81.58,111.44 81.39,114.74 81.39,114.74 C81.39,114.74 79.19,110.5 73.89,111.56 C68.38,112.66 66.62,118.23 66.62,118.23 C66.62,118.23 64.35,113.46 58.89,113.38 C53.44,113.3 50.41,118.98 50.41,118.98 C50.41,118.98 51.32,112.47 44.58,110.65 C38.2,108.93 35.64,114.21 35.64,114.21 C35.64,114.21 35.37,109.01 32.38,107.24 C28.31,104.81 26.49,109.36 26.49,109.36 Z" fill="#D5D5D5"/>
  <path d="M29.63,34.02 L29.53,43.88 L29.5,47.65 L66.27,69.9 L88.88,45.04 L88.9,34.43 Z" fill="#EBC990"/>
  <path d="M29.95,92.34 C29.95,92.34 28.02,92.45 28.47,94.97 C28.74,96.43 34.31,111.91 59.49,111.68 C83.75,111.46 89.18,96.34 89.36,94.97 C89.7,92.34 86.38,93.25 86.38,93.25 L29.95,92.34 Z" fill="#9D9D9C"/>
  <path d="M58.92,50.57 C40.72,51.14 29.51,44.39 29.51,44.39 C29.51,44.39 29.2,87.96 29.28,90.63 C29.39,94.52 34.2,110.09 59.04,109.86 C83.88,109.63 89.03,94.18 89.03,90.17 C89.03,87.99 88.92,44.39 88.92,44.39 C88.92,44.39 81,49.87 58.92,50.57 Z" fill="url(#SVGID_1_)"/>
  <path d="M91.73,47.06 C91.97,49.93 96.27,48.04 100.52,48.13 C105.17,48.23 107.97,50.17 108.21,47.49 C108.45,44.77 103.66,44.08 99.82,43.88 C97.18,43.74 91.5,44.29 91.73,47.06 Z" fill="#FFFFFF"/>
  <path d="M92.1,52.42 C91.48,53.09 91.99,56.63 92.31,56.87 C92.9,57.33 96.53,55.18 100.35,56.45 C106.57,58.51 105.81,62.63 106.18,62.55 C106.57,62.47 107.55,55.61 102.33,52.78 C98.4,50.66 92.72,51.75 92.1,52.42 Z" fill="#9E9E9E"/>
  <path d="M92.66,87.07 C91.93,87.71 92.25,90.06 94.66,90.02 C97.38,89.97 101.19,89.11 104.32,85.4 C106.55,82.76 107.04,77.96 106.18,77.96 C105.32,77.96 103.73,82.86 99.33,85.17 C95.29,87.29 93.43,86.39 92.66,87.07 Z" fill="#FFFFFF"/>
  <path d="M92.17,93.56 L92.37,98.22 C92.37,98.22 99.84,98.64 107.35,92.6 C116.55,85.21 116.42,71 116.38,70.98 C116.28,70.93 113.43,83.42 105.4,89.2 C98.92,93.87 92.17,93.56 92.17,93.56 Z" fill="#9E9E9E"/>
  <path d="M62.69,61.89 C61.66,63.53 62.1,65.14 62.92,65.61 C63.93,66.19 65.47,65.52 66.21,63.99 C66.86,62.65 66.86,61.18 65.64,60.61 C64.68,60.16 63.59,60.45 62.69,61.89 Z" fill="#FFE265"/>
  <path d="M54.35,71.93 C53.28,72.78 53.7,74.09 54.41,75.02 C55.17,76.02 56.62,76.44 57.42,75.73 C58.19,75.04 58.13,73.6 57.31,72.55 C56.62,71.68 55.32,71.16 54.35,71.93 Z" fill="#FFE265"/>
  <path d="M53.11,81.31 C51.12,81.37 50.9,83.32 51.04,84.15 C51.14,84.72 51.66,85.96 53.54,85.91 C55.42,85.86 55.64,83.87 55.53,83.16 C55.4,82.45 54.87,81.26 53.11,81.31 Z" fill="#FFE265"/>
  <path d="M59.4,82.79 C58.43,82.82 57.52,83.71 57.78,85.14 C58.04,86.53 58.97,86.87 59.77,86.76 C60.53,86.65 61.33,85.91 61.22,84.63 C61.1,83.36 60.25,82.76 59.4,82.79 Z" fill="#FFE265"/>
  <path d="M63.5,89.76 C62.32,89.76 61.55,91.02 61.59,92.44 C61.63,93.86 62.51,95.6 64.23,95.4 C65.45,95.26 66.1,93.25 65.81,92.07 C65.53,90.89 64.72,89.76 63.5,89.76 Z" fill="#FFE265"/>
  <path d="M56.59,96.33 C55.25,96.73 55.68,99.03 55.86,99.58 C56.1,100.31 56.75,101.69 58.22,101.37 C59.69,101.05 59.4,99.1 58.87,97.88 C58.45,96.91 57.81,95.97 56.59,96.33 Z" fill="#FFE265"/>
  <path d="M29.79,22.76 C29.47,23.08 23.53,23.87 23.69,29.26 C23.85,34.65 29.64,36.47 31.93,37.27 C34.23,38.06 39.3,38.93 40.81,43.93 C42.32,48.92 42.56,51.28 44.93,51.94 C47.78,52.73 49.7,48.62 51.11,46.31 C52.62,43.85 54.04,41.71 56.42,41.4 C58.8,41.09 72.51,41.4 80.44,39.42 C88.37,37.44 94.81,32.93 94.47,26.34 C94,17.21 81.4,18.16 81.4,18.16 C81.4,18.16 76.44,5.73 63.16,4.13 C46.75,2.15 43.03,12.45 43.03,12.45 C43.03,12.45 36.97,10.83 32.49,14.91 C28.82,18.25 29.79,22.76 29.79,22.76 Z" fill="#FADFB1"/>
  <path d="M44.69,17.13 C43.92,17.63 39.2,14.32 35.61,18.05 C32.58,21.21 34.86,24.18 33.91,25.37 C32.61,26.99 27.98,26.36 28.3,29.76 C28.62,33.17 33.27,33.52 35.68,34.23 C37.95,34.89 40.23,35.88 42.41,37.79 C44.68,39.78 43.9,44.95 46.23,45.43 C48.53,45.91 48.99,40.79 51.93,38.57 C54.86,36.35 56.91,36.56 64.36,36.15 C71.8,35.74 90.34,35.35 89.65,26.95 C89.1,20.21 81.17,22.75 78.79,21.56 C76.41,20.37 73.59,9.92 62.06,8.32 C50.08,6.67 45.97,16.31 44.69,17.13 Z" fill="#FFFFFF"/>
  <path d="M32.5,42.64 C32.16,44.55 31.96,88.9 31.96,88.9 C31.96,88.9 31.76,92.36 34.75,92.77 C37.54,93.16 38.55,90.52 38.62,88.74 C38.7,86.96 39.08,47.21 39.01,45.43 C38.94,43.65 37.23,41.63 35.52,41.09 C33.81,40.55 32.73,41.33 32.5,42.64 Z" fill="#FFFFFF"/>
</svg>
